X:148
T:Jack Robinson
T:Tune
R:hp 32
M:4/4
L:1/8
Q:1/4=140
B:www.squeezy.fsnet.co.uk
K:G
P:A
FE|"G"D2G2 D2BB|"C"c2c2 A4|"D"FGA2 FGA2|"G"GBd^c d3d|\
"C"edce "G"d2B2|"Am"cBAB "D"A2G2|"G"D2G2 "Am"FGAB|"D"A2G2 "G"G2:|
P:B
|:Bc|"G"d2B2 "C"cde2|"C"e2A2 "D"A2Bc|"G"d2B2 "C"cde2|"Am"edcB "D"AcBA|\
"G"GABc d2B2|"C"cBAB A2G2|"D"D2G2 FGAB|"D"A2G "G"G2:|
T:Bass line
P:A
G2z2 B2z2|c2z2 A2z2|d2z2 f2z2|g2z2 d2z2|e2z2 d2z2|c2z2 B2z2|d8-|d2c2B2A2:|
P:B
G2z2 c2z2|z2e2d4|G2z2 c2z2|z2e2d4|g2z2 f2z2|e2z2 c2z2|d8-|d2c2B2A2:|
%%newpage
%%textfont * 20
%%text P2 (3.0)
%%textfont * 12

